modules/hawcons-filled/icons/cloud-wind.svg

<?xml version="1.0" encoding="UTF-8" standalone="no"?>
<svg width="32px" height="32px" viewBox="0 0 32 32" version="1.1" xmlns="http://www.w3.org/2000/svg" xmlns:xlink="http://www.w3.org/1999/xlink" xmlns:sketch="http://www.bohemiancoding.com/sketch/ns">
    <!-- Generator: Sketch 3.0.3 (7891) - http://www.bohemiancoding.com/sketch -->
    <title>icon 13 cloud wind</title>
    <desc>Created with Sketch.</desc>
    <defs></defs>
    <g id="Page-1" stroke="none" stroke-width="1" fill="none" fill-rule="evenodd" sketch:type="MSPage">
        <g id="icon-13-cloud-wind" sketch:type="MSArtboardGroup" fill="#929292">
            <path d="M26.9993494,7.41452952 C28.7676457,8.18529313 30,9.9483386 30,12 C30,14.7558048 27.7616745,17 25.0005601,17 L7.99943992,17 C5.23249418,17 3,14.7614237 3,12 C3,9.94913106 4.23965876,8.18160845 6.01189661,7.41153881 L6.01189661,7.41153881 C6.00400207,7.27536702 6,7.13815088 6,7 C6,3.13400656 9.13400656,0 13,0 C15.2979469,0 17.3372745,1.10728055 18.6135384,2.81739735 C19.4525719,2.29909701 20.441357,2 21.5,2 C24.5090248,2 26.9536744,4.41637629 26.9993494,7.41452952 L26.9993494,7.41452952 L26.9993494,7.41452952 Z M30,22 C30,19.790861 28.2046438,18 26,18 C23.790861,18 22,19.7894101 22,22 L23,22 C23,20.3431458 24.3465171,19 26,19 C27.6568542,19 29,20.3465171 29,22 C29,23.6568542 27.6568766,25 25.9920699,25 L3,25 L3,26 L26.0015293,26 C28.2098237,26 30,24.2046438 30,22 L30,22 Z M21,21 C21,19.3431458 19.6534829,18 18,18 C16.3431458,18 15,19.3420576 15,20.991394 L15,21 L16,21 C16,19.8954305 16.8877296,19 18,19 C19.1045695,19 20,19.8877296 20,21 C20,22.1045695 19.1029399,23 17.9941413,23 L6,23 L6,24 L18.0005775,24 C19.6571128,24 21,22.6534829 21,21 L21,21 Z M25,29 C25,30.1045695 24.1122704,31 23,31 L23,31 C21.8954305,31 21,30.1052949 21,29.0057373 L21,29 L22,29 C22,29.5522847 22.4438648,30 23,30 L23,30 C23.5522847,30 24,29.5561352 24,29 L24,29 C24,28.4477153 23.5510798,28 22.992516,28 L9,28 L9,27 L23.0059397,27 C24.1072288,27 25,27.8877296 25,29 L25,29 L25,29 Z" id="cloud-wind" sketch:type="MSShapeGroup"></path>
        </g>
    </g>
</svg>

<svg width="32" height="32" viewBox="0 0 32 32" xmlns="http://www.w3.org/2000/svg"><path d="M27 7.415c1.768.77 3 2.533 3 4.585 0 2.756-2.238 5-5 5H8c-2.768 0-5-2.239-5-5 0-2.05 1.24-3.818 3.012-4.588a7 7 0 0 1 12.602-4.594A5.5 5.5 0 0 1 27 7.414zM30 22a4 4 0 1 0-8 0h1c0-1.657 1.347-3 3-3 1.657 0 3 1.347 3 3 0 1.657-1.343 3-3.008 3H3v1h23.002A4.002 4.002 0 0 0 30 22zm-9-1c0-1.657-1.347-3-3-3-1.657 0-3 1.342-3 2.991V21h1c0-1.105.888-2 2-2 1.105 0 2 .888 2 2 0 1.105-.897 2-2.006 2H6v1h12c1.657 0 3-1.347 3-3zm4 8c0 1.105-.888 2-2 2-1.105 0-2-.895-2-1.994V29h1c0 .552.444 1 1 1 .552 0 1-.444 1-1 0-.552-.449-1-1.007-1H9v-1h14.006c1.101 0 1.994.888 1.994 2z" fill="#929292" fill-rule="evenodd"/></svg>
